icons/svg/seamark/notice_recommendation_channeloneway.svg

<?xml version="1.0" encoding="UTF-8" standalone="no"?>
<svg
   xmlns:dc="http://purl.org/dc/elements/1.1/"
   xmlns:cc="http://creativecommons.org/ns#"
   xmlns:rdf="http://www.w3.org/1999/02/22-rdf-syntax-ns#"
   xmlns:svg="http://www.w3.org/2000/svg"
   xmlns="http://www.w3.org/2000/svg"
   xmlns:sodipodi="http://sodipodi.sourceforge.net/DTD/sodipodi-0.dtd"
   xmlns:inkscape="http://www.inkscape.org/namespaces/inkscape"
   width="320"
   height="320"
   id="svg2"
   version="1.1"
   inkscape:version="0.48.4 r9939"
   sodipodi:docname="notice_recommendation_channeltwoway.svg">
  <defs
     id="defs13">
    <inkscape:path-effect
       effect="gears"
       id="path-effect3774"
       is_visible="true"
       teeth="6"
       phi="-1.2" />
    <inkscape:path-effect
       effect="bend_path"
       id="path-effect3772"
       is_visible="false"
       bendpath="m 95.790098,316.51174 c 144.429032,-206.42506 223.313032,-11.7428 339.548092,0"
       prop_scale="1.19"
       scale_y_rel="false"
       vertical="false"
       bendpath-nodetypes="cc" />
    <inkscape:path-effect
       effect="spiro"
       id="path-effect3775"
       is_visible="true" />
    <inkscape:path-effect
       effect="spiro"
       id="path-effect3775-9"
       is_visible="true" />
    <inkscape:path-effect
       effect="spiro"
       id="path-effect3775-3"
       is_visible="true" />
    <inkscape:path-effect
       effect="spiro"
       id="path-effect3775-3-4"
       is_visible="true" />
  </defs>
  <sodipodi:namedview
     pagecolor="#ffffff"
     bordercolor="#666666"
     borderopacity="1"
     objecttolerance="10"
     gridtolerance="10"
     guidetolerance="10"
     inkscape:pageopacity="0"
     inkscape:pageshadow="2"
     inkscape:window-width="1920"
     inkscape:window-height="1004"
     id="namedview11"
     showgrid="false"
     inkscape:zoom="1.4142136"
     inkscape:cx="251.00918"
     inkscape:cy="201.71072"
     inkscape:window-x="1680"
     inkscape:window-y="0"
     inkscape:window-maximized="1"
     inkscape:current-layer="svg2"
     inkscape:snap-bbox="true"
     inkscape:object-nodes="true"
     inkscape:snap-midpoints="true"
     inkscape:snap-grids="false"
     inkscape:snap-bbox-edge-midpoints="true"
     showguides="true"
     inkscape:guide-bbox="true"
     inkscape:snap-center="true"
     inkscape:snap-object-midpoints="true">
    <inkscape:grid
       type="xygrid"
       id="grid2990"
       empspacing="5"
       visible="true"
       enabled="true"
       snapvisiblegridlinesonly="true"
       spacingx="10px"
       spacingy="10px"
       dotted="false" />
    <sodipodi:guide
       orientation="1,0"
       position="55.202458,260.58927"
       id="guide3872" />
    <sodipodi:guide
       orientation="1,0"
       position="265.17816,340"
       id="guide3874" />
    <sodipodi:guide
       orientation="0,1"
       position="317.80107,264.96094"
       id="guide3876" />
    <sodipodi:guide
       orientation="0,1"
       position="325.098,54.759006"
       id="guide3878" />
  </sodipodi:namedview>
  <metadata
     id="metadata2975">image/svg+xmlen<rdf:RDF>
  <cc:Work
     rdf:about="">
    <dc:format>image/svg+xml</dc:format>
    <dc:type
       rdf:resource="http://purl.org/dc/dcmitype/StillImage" />
    <dc:title></dc:title>
  </cc:Work>
</rdf:RDF>
</metadata>
  <path
     style="font-size:medium;font-style:normal;font-variant:normal;font-weight:normal;font-stretch:normal;text-indent:0;text-align:start;text-decoration:none;line-height:normal;letter-spacing:normal;word-spacing:normal;text-transform:none;direction:ltr;block-progression:tb;writing-mode:lr-tb;text-anchor:start;baseline-shift:baseline;opacity:0.61199999;color:#000000;fill:#373737;fill-opacity:1;stroke:none;stroke-width:10.00000095;marker:none;visibility:visible;display:inline;overflow:visible;enable-background:accumulate;font-family:Sans;-inkscape-font-specification:Sans"
     d="M 108.53125,96.28125 105,99.8125 l -55.09375,55.25 -3.5,3.53125 3.53125,3.53125 55.21875,55.3125 3.53125,3.53125 3.53125,-3.53125 47.23131,-47.40625 47.58119,47.40625 3.53125,3.53125 3.53125,-3.53125 55.21875,-55.34375 3.5625,-3.53125 -3.5625,-3.53125 -55.375,-55.21875 -3.53125,-3.53125 -3.53125,3.53125 -47.51869,47.15625 -47.26256,-47.15625 z m 0.0312,14.15625 42.96875,42.875 -1.75,1.75 -3.53125,3.53125 3.53125,3.53125 1.75,1.75 -42.84375,42.9375 -48.15625,-48.21875 z m 101.84375,0 48.28125,48.15625 -48.125,48.21875 -42.875,-42.9375 1.78125,-1.78125 3.53125,-3.53125 -3.5625,-3.53125 -1.75,-1.75 z"
     id="path3783-1"
     inkscape:connector-curvature="0"
     sodipodi:nodetypes="ccccccccccccccccccccccccccccccccccccccc" />
  <path
     inkscape:connector-curvature="0"
     style="color:#000000;fill:#ffea00;fill-opacity:1;fill-rule:nonzero;stroke:#858585;stroke-width:0;stroke-linecap:butt;stroke-linejoin:miter;stroke-miterlimit:4;stroke-opacity:1;stroke-dasharray:none;stroke-dashoffset:0;marker:none;visibility:visible;display:inline;overflow:visible;enable-background:accumulate"
     d="m 210.4097,107.02909 51.57326,51.57386 -51.57326,51.57387 0,-103.14773 z"
     id="rect2988-5-5" />
  <path
     inkscape:connector-curvature="0"
     style="color:#000000;fill:#ffea00;fill-opacity:1;fill-rule:nonzero;stroke:#858585;stroke-width:0;stroke-linecap:butt;stroke-linejoin:miter;stroke-miterlimit:4;stroke-opacity:1;stroke-dasharray:none;stroke-dashoffset:0;marker:none;visibility:visible;display:inline;overflow:visible;enable-background:accumulate"
     d="m 108.54135,107.02909 51.57326,51.57386 -51.57326,51.57387 0,-103.14773 z"
     id="rect2988-5" />
  <path
     style="color:#000000;fill:#ffea00;fill-opacity:1;fill-rule:nonzero;stroke:#858585;stroke-width:0;stroke-miterlimit:4;stroke-opacity:1;stroke-dasharray:none;marker:none;visibility:visible;display:inline;overflow:visible;enable-background:accumulate"
     d="m 210.44192,107.02909 -51.57326,51.57386 51.57326,51.57387 0,-51.83737 z"
     id="rect2988-7"
     inkscape:connector-curvature="0"
     sodipodi:nodetypes="ccccc" />
  <path
     style="color:#000000;fill:#ffea00;fill-opacity:1;fill-rule:nonzero;stroke:#858585;stroke-width:0;stroke-miterlimit:4;stroke-opacity:1;stroke-dasharray:none;marker:none;visibility:visible;display:inline;overflow:visible;enable-background:accumulate"
     d="m 108.57357,107.02909 -51.573223,51.57386 51.573223,51.57387 0,-51.83737 z"
     id="rect2988"
     inkscape:connector-curvature="0"
     sodipodi:nodetypes="ccccc" />
</svg>

<svg width="320" height="320" viewBox="0 0 320 320" fill="none" xmlns="http://www.w3.org/2000/svg">
<path opacity="0.612" d="M108.531 96.2812L105 99.8125L49.9062 155.062L46.4062 158.594L49.9375 162.125L105.156 217.438L108.688 220.969L112.219 217.438L159.45 170.031L207.031 217.438L210.562 220.969L214.094 217.438L269.312 162.094L272.875 158.562L269.312 155.031L213.938 99.8125L210.406 96.2812L206.875 99.8125L159.356 146.969L112.094 99.8125L108.531 96.2812ZM108.562 110.438L151.531 153.312L149.781 155.062L146.25 158.594L149.781 162.125L151.531 163.875L108.687 206.812L60.5312 158.594L108.562 110.438ZM210.406 110.438L258.687 158.594L210.562 206.812L167.687 163.875L169.469 162.094L173 158.562L169.437 155.031L167.687 153.281L210.406 110.438Z" fill="#373737"/>
<path d="M210.41 107.029L261.983 158.603L210.41 210.177V107.029Z" fill="#FFEA00"/>
<path d="M108.541 107.029L160.115 158.603L108.541 210.177V107.029Z" fill="#FFEA00"/>
<path d="M210.442 107.029L158.869 158.603L210.442 210.177V158.34V107.029Z" fill="#FFEA00"/>
<path d="M108.573 107.029L57.0002 158.603L108.573 210.177V158.34V107.029Z" fill="#FFEA00"/>
</svg>
